!!!COM: Mozart, Wolfgang Amadeus
!!!OTL: String Quartet No. 5 in F Major
!!!OMD: Tempo di Minuetto
!!!OMV: 3
!!!SCT1: K<sup>1</sup> 158
!!!SCA: Chronologisch-thematisches Verzeichnis sämtlicher Tonwerke Wolfgang Amade Mozarts (L. von Köchel; 1862, 2/1905, 3/1937, 1947)
!!!SCT2: K<sup>6</sup> 158
!!!YOR: Breitkopf & Härtel Edition
!!!ENC: Edmund Correia, Jr.
!!!CDT: 1756/1/27/-1791/12/5/
!!!OCY: Österreich
!!!YEC: Copyright (c) 1994, 2000 Center for Computer Assisted Research in the Humanities
!!!YEM: Rights to all derivative editions reserved.
!!!YEM: Refer to licensing agreement for further details.
!!!YEN: United States of America
**kern	**dynam	**kern	**dynam	**kern	**dynam	**kern	**dynam
*I:Violoncello	*I:Violoncello	*I:Viola	*I:Viola	*I:Violino 2	*I:Violino 2	*I:Violino 1	*I:Violino 1
*>[A,A,B,C,C,D,D,E]	*	*>[A,A,B,C,C,D,D,E]	*	*>[A,A,B,C,C,D,D,E]	*	*>[A,A,B,C,C,D,D,E]	*
*>A	*	*>A	*	*>A	*	*>A	*
*clefF4	*	*clefC3	*	*clefG2	*	*clefG2	*
*k[b-]	*	*k[b-]	*	*k[b-]	*	*k[b-]	*
*F:	*	*F:	*	*F:	*	*F:	*
*M3/4	*	*M3/4	*	*M3/4	*	*M3/4	*
! Tempo di Minuetto	!	! Tempo di Minuetto	!	! Tempo di Minuetto	!	! Tempo di Minuetto	!
!	!	!	!	! 16gP/	!	! 16ggP/	!
4r	.	4r	.	(8fp/L	p	(8ffp\L	p
.	.	.	.	16e/L	.	16ee\L	.
.	.	.	.	16d/JJ)	.	16dd\JJ)	.
2ryy	.	2ryy	.	2ryy	.	2ryy	.
=1	=1	=1	=1	=1	=1	=1	=1
(4AA/	p	(4A/	p	(4c/	.	(4cc\	.
4FF/	.	4F/	.	4A/	.	4a/	.
4GG/)	.	4G/)	.	4B-/)	.	4b-\)	.
=2	=2	=2	=2	=2	=2	=2	=2
4AA/	.	4A/	.	4c/	.	4cc\	.
4r	.	4r	.	4r	.	4r	.
4r	.	4r	.	4r	.	(8.ffT\L	.
.	.	.	.	.	.	32ee\LL	.
.	.	.	.	.	.	32ff\JJJ)	.
=3	=3	=3	=3	=3	=3	=3	=3
2.r	.	2.r	.	2.r	.	4aa\	.
.	.	.	.	.	.	4r	.
.	.	.	.	.	.	(8.ffT\L	.
.	.	.	.	.	.	32ee\LL	.
.	.	.	.	.	.	32ff\JJJ)	.
=4	=4	=4	=4	=4	=4	=4	=4
2.r	.	2.r	.	4r	.	4cc\	.
.	.	.	.	4r	.	4r	.
!	!	!	!	! 16dP/	!	! 16ddP/	!
.	.	.	.	(8cp/L	.	(8ccp\L	.
.	.	.	.	16B-/L	.	16b-\L	.
.	.	.	.	16A/JJ)	.	16a\JJ)	.
=5	=5	=5	=5	=5	=5	=5	=5
4E'\	.	4E'/	.	4G'/	.	4g'/	.
(4E\	.	(4E/	.	(4G/	.	(4g/	.
4F\)	.	4F/)	.	4A/)	.	4a/)	.
=6	=6	=6	=6	=6	=6	=6	=6
4G'\xx	.	4G'/	.	4B-'/	.	4b-'\	.
4r	.	4r	.	4r	.	4r	.
4r	.	4r	.	4r	.	(8.ggT\L	.
.	.	.	.	.	.	32ff\LL	.
.	.	.	.	.	.	32gg\JJJ)	.
=7	=7	=7	=7	=7	=7	=7	=7
2.r	.	2.r	.	2.r	.	4bb-\	.
.	.	.	.	.	.	4r	.
.	.	.	.	.	.	(8.ggT\L	.
.	.	.	.	.	.	32ff\LL	.
.	.	.	.	.	.	32gg\JJJ)	.
=8	=8	=8	=8	=8	=8	=8	=8
2.r	.	4r	.	4r	.	4ee\	.
.	.	4r	.	4r	.	4r	.
!	!	! 16aP/	!	! 16ccP/	!	!	!
.	.	8gp\L	.	(8b-p/L	.	4r	.
.	.	16f\L	.	16a/L	.	.	.
.	.	16e\JJ	.	16g/JJ)	.	.	.
=9	=9	=9	=9	=9	=9	=9	=9
4F\	f	4f\	f	4a/	f	4r	.
4r	.	4r	.	4r	.	(4gg#\	f
4r	.	4r	.	4r	.	4aa\)	.
=10	=10	=10	=10	=10	=10	=10	=10
4G\	p	4d\	p	4f/	p	4r	.
4r	.	4r	.	4r	.	(4cc\	p
4r	.	4r	.	4r	.	4bn\)	.
=11	=11	=11	=11	=11	=11	=11	=11
4A\	f	4c\	f	4e/	f	4r	.
4r	.	4r	.	4r	.	(4bbn\	f
4r	.	4r	.	4r	.	4ccc\)	.
=12	=12	=12	=12	=12	=12	=12	=12
4BBn/	p	4G/	p	4d/	p	4r	.
4r	.	4r	.	4r	.	(4ggn\	p
4r	.	4r	.	4r	.	4ff\)	.
=13	=13	=13	=13	=13	=13	=13	=13
8C'/	.	8e'\	.	8c/L	.	8ee'\	.
8r	.	8r	.	8c/	.	8r	.
8BBn'/	.	8d'\	.	8c/	.	8dd'\	.
8r	.	8r	.	8c/	.	8r	.
8C'/	.	8e'\	.	8c/	.	8ee'\	.
8r	.	8r	.	8c/J	.	8r	.
=14	=14	=14	=14	=14	=14	=14	=14
(2A\	fp	(2f\	fp	8c/L	fp	(2ff\	fp
.	.	.	.	8c/	.	.	.
.	.	.	.	8c/	.	.	.
.	.	.	.	8c/	.	.	.
4G\)	.	4e\)	.	8c/	.	4ee\)	.
.	.	.	.	8c/J	.	.	.
=15	=15	=15	=15	=15	=15	=15	=15
8G'\	.	8e'\	.	8c/L	.	8ee'\	.
8r	.	8r	.	8c/	.	8r	.
8F'\	.	8d'\	.	8c/	.	8dd'\	.
8r	.	8r	.	8c/	.	8r	.
8G'\	.	8e'\	.	8c/	.	8ee'\	.
8r	.	8r	.	8c/J	.	8r	.
=16	=16	=16	=16	=16	=16	=16	=16
(2F\	fp	(2a\	fp	8c/L	fp	(2aa\	fp
.	.	.	.	8c/	.	.	.
.	.	.	.	8c/	.	.	.
.	.	.	.	8c/J	.	.	.
4E\)	.	4g\)	.	4c/	.	4gg\)	.
=17	=17	=17	=17	=17	=17	=17	=17
4EE/	.	4G/	.	4r	.	4r	.
4r	.	4r	.	(16a/LK	.	(16aa\LK	.
.	.	.	.	8.g/J)	.	8.gg\J)	.
4r	.	4r	.	(16f/LK	.	(16ff\LK	.
.	.	.	.	8.e/J)	.	8.ee\J)	.
=18	=18	=18	=18	=18	=18	=18	=18
4FF/	.	4A/	.	(16c#/LK	.	(16cc#\LK	.
.	.	.	.	8.d/J)	.	8.dd\J)	.
4r	.	4r	.	(16e/LK	.	(16ee\LK	.
.	.	.	.	8.f/J)	.	8.ff\J)	.
4r	.	4r	.	(16g#/LK	.	(16gg#\LK	.
.	.	.	.	8.a/J)	.	8.aa\J)	.
=19	=19	=19	=19	=19	=19	=19	=19
4r	.	2G/	f	2e/	f	2ccn\	f
4G\	f	.	.	.	.	.	.
!	!	!	!	! 16gnP/	!	! 16eeP/	!
4GG/	.	4Bn/	.	(8fp/L	.	(8ddp\L	.
.	.	.	.	16e/L	.	16cc\L	.
.	.	.	.	16f/JJ)	.	16dd\JJ)	.
=20	=20	=20	=20	=20	=20	=20	=20
4C/	.	4c\	.	4e/	.	4cc\	.
4r	.	4r	.	4r	.	4r	.
=:!!:	=:!!:	=:!!:	=:!!:	=:!!:	=:!!:	=:!!:	=:!!:
*>B	*	*>B	*	*>B	*	*>B	*
4r	.	4r	.	8e'/L	p	8gg'\L	p
.	.	.	.	8d'/J	.	8ff'\J	.
2ryy	.	2ryy	.	2ryy	.	2ryy	.
=21	=21	=21	=21	=21	=21	=21	=21
2.r	.	2.r	.	4c'/	.	4ee'\	.
.	.	.	.	4c'/	.	4ee'\	.
.	.	.	.	4c'/	.	4ee'\	.
=22	=22	=22	=22	=22	=22	=22	=22
4r	.	4r	.	(4d/	.	(4ff\	.
4r	.	4r	.	4Bn/)	.	4dd\)	.
8F'\L	p	8a'\L	p	4r	.	4r	.
8E'\J	.	8g'\J	.	.	.	.	.
=23	=23	=23	=23	=23	=23	=23	=23
4D'\	.	4f'\	.	2.r	.	2.r	.
4D'\	.	4f'\	.	.	.	.	.
4D'\	.	4f'\	.	.	.	.	.
=24	=24	=24	=24	=24	=24	=24	=24
(4E\	.	(4g\	.	2.r	.	4r	.
4C/)	.	4e\)	.	.	.	4r	.
!	!	!	!	!	!	! 16ddP/	!
4r	.	4r	.	.	.	(8ccp\L	.
.	.	.	.	.	.	16b-\L	.
.	.	.	.	.	.	16a\JJ)	.
=25	=25	=25	=25	=25	=25	=25	=25
(4F#\	.	(4a\	.	(4cc\	.	2dd\	.
4G\)	.	4g\)	.	4b-\)	.	.	.
!	!	!	!	!	!	! 16ccP/	!
4r	.	4r	.	4r	.	(8b-p/L	.
.	.	.	.	.	.	16a/L	.
.	.	.	.	.	.	16g/JJ)	.
=26	=26	=26	=26	=26	=26	=26	=26
(4E\	.	(4g\	.	(4b-\	.	2cc\	.
4Fn\)	.	4f\)	.	4a/)	.	.	.
!	!	!	!	!	!	! 16b-P/	!
4r	.	4r	.	4r	.	(8ap/L	.
.	.	.	.	.	.	16g/L	.
.	.	.	.	.	.	16f/JJ)	.
=27	=27	=27	=27	=27	=27	=27	=27
4r	.	4r	.	4r	.	4c/	.
(4E\	.	4c\	.	(4g/	.	(4b-\	.
4F\)	.	4c\	.	4f/)	.	4a/)	.
=28	=28	=28	=28	=28	=28	=28	=28
4C/	.	4c\	.	4e/	.	4g/	.
4r	.	4r	.	4r	.	4r	.
(12C\L	f	(12c\L	f	(12c/L	f	(12c/L	f
12D\	.	12d\	.	12d/	.	12d/	.
12E\J)	.	12e\J)	.	12e/J)	.	12e/J)	.
=29	=29	=29	=29	=29	=29	=29	=29
4F\	.	4f\	.	4f/	.	4f/	.
4r	.	4r	.	4r	.	4r	.
(12E\L	.	(12e\L	.	(12e/L	.	(12e/L	.
12F\	.	12f\	.	12f/	.	12f/	.
12G\J)	.	12g\J)	.	12g/J)	.	12g/J)	.
=30	=30	=30	=30	=30	=30	=30	=30
4A\	.	4a\	.	4a/	.	4a/	.
4r	.	4r	.	4r	.	4r	.
(12G\L	.	(12g\L	.	(12g/L	.	(12g/L	.
12A\	.	12a\	.	12a/	.	12a/	.
12Bn\J)	.	12bn\J)	.	12bn/J)	.	12bn/J)	.
=31	=31	=31	=31	=31	=31	=31	=31
4c\	.	4cc\	.	4cc'\	.	4cc'\	.
4d\	.	4dd\	.	4dd'\	.	4dd'\	.
4e\	.	4ee\	.	4ee'\	.	4ee'\	.
=32	=32	=32	=32	=32	=32	=32	=32
4c\	.	4cc\	.	4cc\	.	4cc\	.
4r	.	4r	.	4r	.	4r	.
4r	.	4r	.	4r	.	(8.b-T/L	f
.	.	.	.	.	.	32a/LL	.
.	.	.	.	.	.	32b-/JJJ)	.
=33	=33	=33	=33	=33	=33	=33	=33
2.r	.	2.r	.	2.r	.	4ee\	.
.	.	.	.	.	.	4r	.
.	.	.	.	.	.	(8.ggT\L	.
.	.	.	.	.	.	32ff\LL	.
.	.	.	.	.	.	32gg\JJJ)	.
=34	=34	=34	=34	=34	=34	=34	=34
2.r	.	2.r	.	4r	.	4bb-\	.
.	.	.	.	4r	.	4r	.
.	.	.	.	4dd-\	.	4r	.
=35	=35	=35	=35	=35	=35	=35	=35
4r	.	2.r	.	(4f/	.	2.r	.
4r	.	.	.	4e/)	.	.	.
4d-\	.	.	.	4b-'\	.	.	.
=36	=36	=36	=36	=36	=36	=36	=36
(4F\	.	2.r	.	(4d-/	.	2.r	.
4E\)	.	.	.	4c/)	.	.	.
4B-'\	.	.	.	4dd-\	.	.	.
=37	=37	=37	=37	=37	=37	=37	=37
(4D-\	.	2.r	.	(4f/	.	2.r	.
4C/)	.	.	.	4e/)	.	.	.
4d-\	.	.	.	4b-'\	.	.	.
=38	=38	=38	=38	=38	=38	=38	=38
(4F\	.	4r	.	(4d-/	.	2.r	.
4E\)	.	4r	.	4c/)	.	.	.
4r	.	(8.cT\L	.	4r	.	.	.
.	.	32Bn\LL	.	.	.	.	.
.	.	32c\JJJ)	.	.	.	.	.
=39	=39	=39	=39	=39	=39	=39	=39
2.r	.	4e\	.	2.r	.	2.r	.
.	.	4r	.	.	.	.	.
.	.	(8.gT\L	.	.	.	.	.
.	.	32f\LL	.	.	.	.	.
.	.	32g\JJJ)	.	.	.	.	.
=40	=40	=40	=40	=40	=40	=40	=40
2.r	.	4b-\	.	4r	.	4r	.
.	.	4r	.	4r	.	4r	.
!	!	!	!	! 16gP/	!	! 16ggP/	!
.	.	4r	.	(8fp/L	p	(8ffp\L	p
.	.	.	.	16e/L	.	16ee\L	.
.	.	.	.	16dn/JJ)	.	16dd\JJ)	.
=41	=41	=41	=41	=41	=41	=41	=41
(4AA/	p	(4A/	p	(4c/	.	(4cc\	.
4FF/	.	4F/	.	4A/	.	4a/	.
4GG/)	.	4G/)	.	4B-/)	.	4b-\)	.
=42	=42	=42	=42	=42	=42	=42	=42
4AA'/	.	4A'/	.	4c'/	.	4cc'\	.
4r	.	4r	.	4r	.	4r	.
4r	.	4r	.	4r	.	(8.ffT\L	.
.	.	.	.	.	.	32ee\LL	.
.	.	.	.	.	.	32ff\JJJ)	.
=43	=43	=43	=43	=43	=43	=43	=43
2.r	.	2.r	.	2.r	.	4aa\	.
.	.	.	.	.	.	4r	.
.	.	.	.	.	.	(8.ffT\L	.
.	.	.	.	.	.	32ee\LL	.
.	.	.	.	.	.	32ff\JJJ)	.
=44	=44	=44	=44	=44	=44	=44	=44
2.r	.	2.r	.	4r	.	4cc\	.
.	.	.	.	4r	.	4r	.
!	!	!	!	! 16dP/	!	! 16ddP/	!
.	.	.	.	(8cp/L	.	(8ccp\L	.
.	.	.	.	16B-/L	.	16b-\L	.
.	.	.	.	16A/JJ)	.	16a\JJ)	.
=45	=45	=45	=45	=45	=45	=45	=45
4EE'/	.	4E'/	.	4G'/	.	4g'/	.
(4EE/	.	(4E/	.	(4G/	.	(4g/	.
4FF/)	.	4F/)	.	4A/)	.	4a/)	.
=46	=46	=46	=46	=46	=46	=46	=46
4GG'/xx	.	4G'/	.	4B-'/xx	.	4b-'\xx	.
4r	.	4r	.	4r	.	4r	.
4r	.	4r	.	4r	.	(8.ggT\L	.
.	.	.	.	.	.	32ff\LL	.
.	.	.	.	.	.	32gg\JJJ)	.
=47	=47	=47	=47	=47	=47	=47	=47
2.r	.	2.r	.	2.r	.	4bb-\	.
.	.	.	.	.	.	4r	.
.	.	.	.	.	.	(8.ggT\L	.
.	.	.	.	.	.	32ff\LL	.
.	.	.	.	.	.	32gg\JJJ)	.
=48	=48	=48	=48	=48	=48	=48	=48
2.r	.	4r	.	4r	.	4ee\	.
.	.	4r	.	4r	.	4r	.
!	!	! 16aP/	!	! 16ccP/	!	!	!
.	.	(8gp\L	.	(8b-p/L	.	4r	.
.	.	16f\L	.	16a/L	.	.	.
.	.	16e\JJ)	.	16g/JJ)	.	.	.
=49	=49	=49	=49	=49	=49	=49	=49
4F\	f	4f\	f	4a/	f	4r	.
4r	.	4r	.	4r	.	(4bbn\	f
4r	.	4r	.	4r	.	4ccc\)	.
=50	=50	=50	=50	=50	=50	=50	=50
4BB-/	p	4f\	p	4b-\	p	4r	.
4r	.	4r	.	4r	.	(4ee-\	p
4r	.	4r	.	4r	.	4dd\)	.
=51	=51	=51	=51	=51	=51	=51	=51
4G\	f	4G/	f	4d/	f	4r	.
4r	.	4r	.	4r	.	(4aa\	f
4r	.	4r	.	4r	.	4bb-\)	.
=52	=52	=52	=52	=52	=52	=52	=52
4E\	p	4g\	p	4b-\	p	4r	.
4r	.	4r	.	4r	.	(4dd\	p
4r	.	4r	.	4r	.	4cc\)	.
=53	=53	=53	=53	=53	=53	=53	=53
8F\	.	8c\L	.	8a/	.	8aa\	.
8r	.	8c\	.	8r	.	8r	.
8E\	.	8c\	.	8g/	.	8gg\	.
8r	.	8c\	.	8r	.	8r	.
8F\	.	8c\	.	8a/	.	8aa\	.
8r	.	8c\J	.	8r	.	8r	.
=54	=54	=54	=54	=54	=54	=54	=54
(2G\	fp	8c\L	fp	(2b-\	fp	(2bb-\	fp
.	.	8c\	.	.	.	.	.
.	.	8c\	.	.	.	.	.
.	.	8c\	.	.	.	.	.
4E\)	.	8c\	.	4g/)	.	4gg\)	.
.	.	8c\J	.	.	.	.	.
=55	=55	=55	=55	=55	=55	=55	=55
8G\	.	8c\L	.	8b-\	.	8bb-\	.
8r	.	8c\	.	8r	.	8r	.
8F\	.	8c\	.	8a/	.	8aa\	.
8r	.	8c\	.	8r	.	8r	.
8G\	.	8c\	.	8b-\	.	8bb-\	.
8r	.	8c\J	.	8r	.	8r	.
=56	=56	=56	=56	=56	=56	=56	=56
(2A\	fp	8c\L	fp	(2cc\	fp	(2ccc\	fp
.	.	8c\	.	.	.	.	.
.	.	8c\	.	.	.	.	.
.	.	8c\	.	.	.	.	.
4F\)	.	8c\	.	4a/)	.	4aa\)	.
.	.	8c\J	.	.	.	.	.
=57	=57	=57	=57	=57	=57	=57	=57
4AA/	.	4f\	.	4r	.	4r	.
4r	.	4r	.	(16dd\LK	.	(16ddd\LK	.
.	.	.	.	8.cc\J)	.	8.ccc\J)	.
4r	.	4r	.	(16b-/LK	.	(16bb-\LK	.
.	.	.	.	8.a/J)	.	8.aa\J)	.
=58	=58	=58	=58	=58	=58	=58	=58
4BB-/	.	4d\	.	(16f#/LK	.	(16ff#\LK	.
.	.	.	.	8.g/J)	.	8.gg\J)	.
4r	.	4r	.	(16a/LK	.	(16aa\LK	.
.	.	.	.	8.g/J)	.	8.gg\J)	.
4r	.	4r	.	(16b-/LK	.	(16bb-\LK	.
.	.	.	.	8.g/J)	.	8.gg\J)	.
=59	=59	=59	=59	=59	=59	=59	=59
4r	.	(2A/	.	(2fn/	.	2ffn\	.
(4C/	.	.	.	.	.	.	.
4C#/)	.	4B-/)	.	4e/)	.	(8ggT\L	.
.	.	.	.	.	.	16ff\L	.
.	.	.	.	.	.	16gg\JJ)	.
=60	=60	=60	=60	=60	=60	=60	=60
4D\	.	4A/	.	4f/	.	4ff\	.
4r	.	4r	.	4r	.	4r	.
4r	.	4r	.	4r	.	4r	.
=61	=61	=61	=61	=61	=61	=61	=61
4BB-/	f	4F/	f	4r	.	4r	.
4r	.	4r	.	(16c#/LK	f	(16cc#\LK	f
.	.	.	.	8.d/J)	.	8.dd\J)	.
4r	.	4r	.	(16cn/LK	.	(16ccn\LK	.
.	.	.	.	8.B-/J)	.	8.b-\J)	.
=62	=62	=62	=62	=62	=62	=62	=62
2.r	.	4r	.	(16A/LK	.	(16a/LK	.
.	.	.	.	8.G/J)	.	8.g/J)	.
.	.	(16F#/LK	.	(16A/LK	.	(16f#/LK	.
.	.	8.G/J)	.	8.B-/J)	.	8.g/J)	.
.	.	(16B-/LK	.	(16d/LK	.	(16b-/LK	.
.	.	8.G/J)	.	8.B-/J)	.	8.g/J)	.
=63	=63	=63	=63	=63	=63	=63	=63
4r	.	2c\	.	2A/	.	2fn/	.
4C/	.	.	.	.	.	.	.
!	!	!	!	! 16cP/	!	! 16aP/	!
4CC/	.	4E/	.	(8B-p/L	.	(8gp/L	.
.	.	.	.	16A/L	.	16f/L	.
.	.	.	.	16B-/JJ)	.	16g/JJ)	.
=64	=64	=64	=64	=64	=64	=64	=64
4FF/	.	4Fn/	.	4A/	.	4f/	.
4r	.	4r	.	4r	.	4r	.
=||	=||	=||	=||	=||	=||	=||	=||
*>C	*	*>C	*	*>C	*	*>C	*
*k[b-e-a-d-]	*	*k[b-e-a-d-]	*	*k[b-e-a-d-]	*	*k[b-e-a-d-]	*
*f:	*	*f:	*	*f:	*	*f:	*
4r	.	4r	.	4r	.	4cc\	.
2ryy	.	2ryy	.	2ryy	.	2ryy	.
=65	=65	=65	=65	=65	=65	=65	=65
4r	.	4r	.	4r	.	(4ff\	.
4r	.	4r	.	4r	.	4een\)	.
4c'\	.	4en'\	.	4g'/	.	4r	.
=66	=66	=66	=66	=66	=66	=66	=66
(4Bn\	.	(4f\	.	(4a-/	.	4r	.
4c\)	.	4en\)	.	4g/)	.	4r	.
4r	.	4r	.	4r	.	4cc'\	.
=67	=67	=67	=67	=67	=67	=67	=67
4r	.	4r	.	4r	.	(4bn\	.
4r	.	4r	.	4r	.	4cc\)	.
4C'/	.	4en'\	.	4g'/	.	4r	.
=68	=68	=68	=68	=68	=68	=68	=68
(4F\	.	(4Bn/	.	(4a-/	.	4r	.
4En\)	.	4c\)	.	4g/)	.	4r	.
4r	.	4r	.	4r	.	4cc\	p
=69	=69	=69	=69	=69	=69	=69	=69
2.F\	p	4r	.	4r	.	2.aa-\	.
.	.	4f\	p	4cc\	p	.	.
.	.	4f\	.	4cc\	.	.	.
=70	=70	=70	=70	=70	=70	=70	=70
2.E-\	.	4r	.	4r	.	2.gg-\	.
.	.	4A-/	.	4c/	.	.	.
.	.	4A-/	.	4c/	.	.	.
=71	=71	=71	=71	=71	=71	=71	=71
2.D-\	.	4r	.	4r	.	2.ff\	.
.	.	4A-/	.	4d-/	.	.	.
.	.	4A-/	.	4d-/	.	.	.
=72	=72	=72	=72	=72	=72	=72	=72
2.AAn/	.	4r	.	4r	.	2.ee-\	.
.	.	4c\	.	4f/	.	.	.
.	.	4c\	.	4f/	.	.	.
=73	=73	=73	=73	=73	=73	=73	=73
2.BB-/	.	4r	.	4r	.	2.dd-\	.
.	.	4B-/	.	4f/	.	.	.
.	.	4B-/	.	4f/	.	.	.
=74	=74	=74	=74	=74	=74	=74	=74
2.AA-/	.	4r	.	4r	.	2.cc\	.
.	.	4c\	.	4f/	.	.	.
.	.	4c\	.	4f/	.	.	.
=75	=75	=75	=75	=75	=75	=75	=75
4GG/	.	4dn\	.	4f/	.	(16bn\LL	.
.	.	.	.	.	.	16cc\	.
.	.	.	.	.	.	16b\	.
.	.	.	.	.	.	16cc\JJ	.
4r	.	4r	.	4r	.	16ddn\LL	.
.	.	.	.	.	.	16ee-\	.
.	.	.	.	.	.	16dd\	.
.	.	.	.	.	.	16ee-\JJ	.
4r	.	4r	.	4r	.	16ff\LL	.
.	.	.	.	.	.	16ggn\	.
.	.	.	.	.	.	16ff\	.
.	.	.	.	.	.	16gg\JJ)	.
=76	=76	=76	=76	=76	=76	=76	=76
2.BBn/	f	2.dn\	f	(4f/	f	(4aa-\	f
.	.	.	.	4g/	.	4gg\	.
.	.	.	.	4a-/)	.	4ff\)	.
=77	=77	=77	=77	=77	=77	=77	=77
4C/	.	4e-\	.	4g/	.	4ee-\	.
4r	.	4r	.	4r	.	4r	.
(4EE-/xx	p	(4G/	p	(4c/	p	(4cc\	p
=78	=78	=78	=78	=78	=78	=78	=78
4FF/)	.	4A-/)	.	4d-/)	.	4dd-\)	.
4r	.	4r	.	4r	.	4r	.
(4GG/	.	(4F/	.	(4Bn/	.	(4bn\	.
=79	=79	=79	=79	=79	=79	=79	=79
8C/)	.	8E-/)	.	8c/)	.	8cc\)	.
8r	.	8r	.	8r	.	8r	.
8E-\	.	8e-\	.	8e-/	.	8e-/	.
8r	.	8r	.	8r	.	8r	.
8G\	.	8g\	.	8g/	.	8g/	.
8r	.	8r	.	8r	.	8r	.
=80	=80	=80	=80	=80	=80	=80	=80
4C/	.	4c\	.	4c/	.	4c/	.
4r	.	4r	.	4r	.	4r	.
=:!!:	=:!!:	=:!!:	=:!!:	=:!!:	=:!!:	=:!!:	=:!!:
*>D	*	*>D	*	*>D	*	*>D	*
4r	.	4r	.	4c/	f	4ee-\	f
2ryy	.	2ryy	.	2ryy	.	2ryy	.
=81	=81	=81	=81	=81	=81	=81	=81
4r	.	4r	.	(4e-/	.	(4gg-\	.
4r	.	4r	.	4d-/)	.	4ff\)	.
4An\	f	4cc\	f	4r	.	4r	.
=82	=82	=82	=82	=82	=82	=82	=82
(4c\	.	(4ee-\	.	4r	.	4r	.
4B-\)	.	4dd-\)	.	4r	.	4r	.
4r	.	4r	.	4B-/	.	4dd-\	.
=83	=83	=83	=83	=83	=83	=83	=83
4r	.	4r	.	(4d-/	.	(4ff\	.
4r	.	4r	.	4c/)	.	4ee-\)	.
4G\	.	4b-\	.	4r	.	4r	.
=84	=84	=84	=84	=84	=84	=84	=84
(4B-\	.	(4dd-\	.	2.r	.	4r	.
4A-\)	.	4cc\)	.	.	.	4r	.
4r	.	4r	.	.	.	4cc\xx	p
=85	=85	=85	=85	=85	=85	=85	=85
2.r	.	2.f\	p	4r	.	2.aa-\	.
.	.	.	.	4cc\	p	.	.
.	.	.	.	[4dd-\	.	.	.
=86	=86	=86	=86	=86	=86	=86	=86
2.r	.	2en\	.	4dd-\]	.	2.ggn\	.
.	.	.	.	4bn\	.	.	.
.	.	4e-\	.	[4cc\	.	.	.
=87	=87	=87	=87	=87	=87	=87	=87
2.r	.	2dn\	.	4cc\]	.	2.ff\	.
.	.	.	.	4an/	.	.	.
.	.	4d-\	.	[4b-\	.	.	.
=88	=88	=88	=88	=88	=88	=88	=88
2.r	.	2.c\	.	4b-\]	.	2.ee-\	.
.	.	.	.	4g/	.	.	.
.	.	.	.	[4a-/	.	.	.
=89	=89	=89	=89	=89	=89	=89	=89
2.r	.	2.B-/	.	4a-/]	.	2.dd-\	.
.	.	.	.	4f/	.	.	.
.	.	.	.	[4g-/	.	.	.
=90	=90	=90	=90	=90	=90	=90	=90
2.r	.	2.A-/	.	4g-/]	.	[2.cc\	.
.	.	.	.	4en/	.	.	.
.	.	.	.	4f/	.	.	.
=91	=91	=91	=91	=91	=91	=91	=91
2.r	.	(2En/	.	(2gn/	.	(4cc\]	.
.	.	.	.	.	.	4b-\	.
.	.	4F/)	.	4f/)	.	4a-/)	.
=92	=92	=92	=92	=92	=92	=92	=92
2.r	.	4C/	.	4en/	.	4g/	.
.	.	4r	.	4r	.	4r	.
.	.	4r	.	4r	.	4cc'\	f
=93	=93	=93	=93	=93	=93	=93	=93
4r	.	4r	.	4r	.	(4ff\	.
4r	.	4r	.	4r	.	4een\)	.
4c'\	f	4en'\	f	4g'/	f	4r	.
=94	=94	=94	=94	=94	=94	=94	=94
(4Bn\	.	(4f\	.	(4a-/	.	4r	.
4c\)	.	4en\)	.	4g/)	.	4r	.
4r	.	4r	.	4r	.	4cc'\	.
=95	=95	=95	=95	=95	=95	=95	=95
4r	.	4r	.	4r	.	(4bn\	.
4r	.	4r	.	4r	.	4cc\)	.
4C'/	.	4en'\	.	4g'/	.	4r	.
=96	=96	=96	=96	=96	=96	=96	=96
(4F\	.	(4Bn/	.	(4a-/	.	4r	.
4En\)	.	4c\)	.	4g/)	.	4r	.
4r	.	4r	.	4r	.	4cc\	p
=97	=97	=97	=97	=97	=97	=97	=97
2.F\	p	4r	.	4r	.	2.aa-\	.
.	.	4f\	p	4cc\	p	.	.
.	.	4f\	.	4cc\	.	.	.
=98	=98	=98	=98	=98	=98	=98	=98
2.E-\	.	4r	.	4r	.	2.gg-\	.
.	.	4A-/	.	4c/	.	.	.
.	.	4A-/	.	4c/	.	.	.
=99	=99	=99	=99	=99	=99	=99	=99
2.D-\	.	4r	.	4r	.	2.ff\	.
.	.	4A-/	.	4d-/	.	.	.
.	.	4A-/	.	4d-/	.	.	.
=100	=100	=100	=100	=100	=100	=100	=100
2.C/	.	4r	.	4r	.	2.ee-\	.
.	.	4An/	.	4f/	.	.	.
.	.	4A/	.	4f/	.	.	.
=101	=101	=101	=101	=101	=101	=101	=101
2.BB-/	.	4r	.	4r	.	2.dd-\	.
.	.	4B-/	.	4f/	.	.	.
.	.	4B-/	.	4f/	.	.	.
=102	=102	=102	=102	=102	=102	=102	=102
2.AA-/	.	4r	.	4r	.	2.cc\	.
.	.	4c\	.	4f/	.	.	.
.	.	4c\	.	4f/	.	.	.
=103	=103	=103	=103	=103	=103	=103	=103
4GG/	.	4dn\	.	4f/	.	(16bn\LL	.
.	.	.	.	.	.	16cc\	.
.	.	.	.	.	.	16b\	.
.	.	.	.	.	.	16cc\JJ	.
4r	.	4r	.	4r	.	16ddn\LL	.
.	.	.	.	.	.	16ee-\	.
.	.	.	.	.	.	16dd\	.
.	.	.	.	.	.	16ee-\JJ	.
4r	.	4r	.	4r	.	16ff\LL	.
.	.	.	.	.	.	16ggn\	.
.	.	.	.	.	.	16ff\	.
.	.	.	.	.	.	16gg\JJ)	.
=104	=104	=104	=104	=104	=104	=104	=104
(2.BBn/	f	2.dn\	f	(4f/	f	(4aa-\	f
.	.	.	.	4g/	.	4gg\	.
.	.	.	.	4a-/)	.	4ff\)	.
=105	=105	=105	=105	=105	=105	=105	=105
4BB-/)	.	4d-\	.	4g/	.	(16een\LL	.
.	.	.	.	.	.	16ff\	.
.	.	.	.	.	.	16ee\	.
.	.	.	.	.	.	16ff\JJ	.
4r	.	4r	.	4r	.	16gg\LL	.
.	.	.	.	.	.	16aa-\	.
.	.	.	.	.	.	16gg\	.
.	.	.	.	.	.	16aa-\JJ	.
4r	.	4r	.	4r	.	16bb-\LL	.
.	.	.	.	.	.	16ccc\	.
.	.	.	.	.	.	16bb-\	.
.	.	.	.	.	.	16ccc\JJ)	.
=106	=106	=106	=106	=106	=106	=106	=106
(2.En\	.	(4g\	.	(4b-\	.	(4ddd-\	.
.	.	4c\)	.	4a-/	.	4ccc\	.
.	.	4c'\	.	4g/)	.	4bb-\)	.
=107	=107	=107	=107	=107	=107	=107	=107
4F\)	.	4c\	.	4f'/xx	.	4aa-'\	.
4r	.	4r	.	4r	.	4r	.
(4AA-/	p	(4c\	p	(4f/	p	(4ff\	p
=108	=108	=108	=108	=108	=108	=108	=108
4BB-/)	.	4d-\)	.	4g-/)	.	4gg-\)	.
4r	.	4r	.	4r	.	4r	.
(4C/	.	(4B-/	.	(4en/	.	(4een\	.
=109	=109	=109	=109	=109	=109	=109	=109
8F\)	.	8A-/)	.	8f/)	.	8ff\)	.
8r	.	8r	.	8r	.	8r	.
8AA-/	.	8A-/	.	8a-/	.	8a-/	.
8r	.	8r	.	8r	.	8r	.
8C/	.	8c\	.	8cc\	.	8cc\	.
8r	.	8r	.	8r	.	8r	.
=110	=110	=110	=110	=110	=110	=110	=110
4FF/	.	4F/	.	4f/	.	4f/	.
4r	.	4r	.	4r	.	4r	.
! Da capo Tempo di Minuetto	!	! Da capo Tempo di Minuetto	!	! Da capo Tempo di Minuetto	!	! Da capo Tempo di Minuetto	!
! senza Ritornello	!	! senza Ritornello	!	! senza Ritornello	!	! senza Ritornello	!
==:|!	==:|!	==:|!	==:|!	==:|!	==:|!	==:|!	==:|!
*>E	*	*>E	*	*>E	*	*>E	*
*-	*-	*-	*-	*-	*-	*-	*-
!!!RWG: Appoggiaturas of spine 'Violino 1' need manual editing in measures: 0, 4, 19, 24, 25, 26, 40, 44, 63
!!!RWG: Appoggiaturas of spine 'Violino 2' need manual editing in measures: 0, 4, 8, 19, 40, 44, 48, 63
!!!RWG: Appoggiaturas of spine 'Viola' need manual editing in measures: 8, 48
!!!RWG: Key is interpreted using the Humdrum key tool.
!!!AFT: stage2
!!!END: 1994/03/30
!!!KEY: 1785260819
!!!EMD: Converted from MuseData to Humdrum Dec 16, 2000, by Andreas Kornstaedt using muse2kern.
!!!EMD: Manual editing by Craig Sapp, Nov 2001
